epam-assets/icon-sources/18/notification-help-outline.svg

<svg width="18" height="18" viewBox="0 0 18 18" fill="none" xmlns="http://www.w3.org/2000/svg">
<g id="18/notification-help-outline">
<path id="icon" d="M8.9625 13.5C9.225 13.5 9.447 13.4092 9.6285 13.2277C9.8095 13.0467 9.9 12.825 9.9 12.5625C9.9 12.3 9.8095 12.0782 9.6285 11.8973C9.447 11.7157 9.225 11.625 8.9625 11.625C8.7 11.625 8.478 11.7157 8.2965 11.8973C8.1155 12.0782 8.025 12.3 8.025 12.5625C8.025 12.825 8.1155 13.0467 8.2965 13.2277C8.478 13.4092 8.7 13.5 8.9625 13.5ZM8.2875 10.6125H9.675C9.675 10.2 9.722 9.875 9.816 9.6375C9.9095 9.4 10.175 9.075 10.6125 8.6625C10.9375 8.3375 11.1938 8.028 11.3813 7.734C11.5688 7.4405 11.6625 7.0875 11.6625 6.675C11.6625 5.975 11.4062 5.4375 10.8937 5.0625C10.3812 4.6875 9.775 4.5 9.075 4.5C8.3625 4.5 7.7845 4.6875 7.341 5.0625C6.897 5.4375 6.5875 5.8875 6.4125 6.4125L7.65 6.9C7.7125 6.675 7.85325 6.43125 8.07225 6.16875C8.29075 5.90625 8.625 5.775 9.075 5.775C9.475 5.775 9.775 5.88425 9.975 6.10275C10.175 6.32175 10.275 6.5625 10.275 6.825C10.275 7.075 10.2 7.30925 10.05 7.52775C9.9 7.74675 9.7125 7.95 9.4875 8.1375C8.9375 8.625 8.6 8.99375 8.475 9.24375C8.35 9.49375 8.2875 9.95 8.2875 10.6125ZM9 16.5C7.9625 16.5 6.9875 16.303 6.075 15.909C5.1625 15.5155 4.36875 14.9813 3.69375 14.3063C3.01875 13.6313 2.4845 12.8375 2.091 11.925C1.697 11.0125 1.5 10.0375 1.5 9C1.5 7.9625 1.697 6.9875 2.091 6.075C2.4845 5.1625 3.01875 4.36875 3.69375 3.69375C4.36875 3.01875 5.1625 2.48425 6.075 2.09025C6.9875 1.69675 7.9625 1.5 9 1.5C10.0375 1.5 11.0125 1.69675 11.925 2.09025C12.8375 2.48425 13.6313 3.01875 14.3063 3.69375C14.9813 4.36875 15.5155 5.1625 15.909 6.075C16.303 6.9875 16.5 7.9625 16.5 9C16.5 10.0375 16.303 11.0125 15.909 11.925C15.5155 12.8375 14.9813 13.6313 14.3063 14.3063C13.6313 14.9813 12.8375 15.5155 11.925 15.909C11.0125 16.303 10.0375 16.5 9 16.5ZM9 15C10.675 15 12.0937 14.4187 13.2562 13.2562C14.4187 12.0937 15 10.675 15 9C15 7.325 14.4187 5.90625 13.2562 4.74375C12.0937 3.58125 10.675 3 9 3C7.325 3 5.90625 3.58125 4.74375 4.74375C3.58125 5.90625 3 7.325 3 9C3 10.675 3.58125 12.0937 4.74375 13.2562C5.90625 14.4187 7.325 15 9 15Z" fill="#6C6F80"/>
</g>
</svg>

<svg xmlns="http://www.w3.org/2000/svg" width="18" height="18" fill="none" viewBox="0 0 18 18">
  <path fill="#6C6F80" d="M8.963 13.5c.262 0 .484-.09.666-.272a.905.905 0 0 0 .271-.665.904.904 0 0 0-.271-.666.906.906 0 0 0-.666-.272.906.906 0 0 0-.666.272.904.904 0 0 0-.272.665c0 .263.09.485.271.666a.906.906 0 0 0 .667.272Zm-.675-2.887h1.387c0-.413.047-.738.141-.976.093-.237.359-.562.796-.975.325-.325.582-.634.77-.928.187-.293.28-.646.28-1.059 0-.7-.256-1.237-.768-1.612-.513-.375-1.119-.563-1.819-.563-.712 0-1.29.188-1.734.563a2.975 2.975 0 0 0-.929 1.35L7.65 6.9c.063-.225.203-.469.422-.731.219-.263.553-.394 1.003-.394.4 0 .7.11.9.328.2.219.3.46.3.722 0 .25-.075.484-.225.703a3.03 3.03 0 0 1-.563.61c-.55.487-.887.856-1.012 1.106-.125.25-.188.706-.188 1.369ZM9 16.5a7.3 7.3 0 0 1-2.925-.591 7.569 7.569 0 0 1-2.381-1.603 7.569 7.569 0 0 1-1.603-2.381A7.3 7.3 0 0 1 1.5 9a7.3 7.3 0 0 1 .591-2.925 7.569 7.569 0 0 1 1.603-2.381A7.58 7.58 0 0 1 6.075 2.09 7.307 7.307 0 0 1 9 1.5c1.037 0 2.012.197 2.925.59a7.58 7.58 0 0 1 2.381 1.604 7.569 7.569 0 0 1 1.603 2.381A7.3 7.3 0 0 1 16.5 9a7.3 7.3 0 0 1-.591 2.925 7.569 7.569 0 0 1-1.603 2.381 7.569 7.569 0 0 1-2.381 1.603A7.3 7.3 0 0 1 9 16.5ZM9 15c1.675 0 3.094-.581 4.256-1.744C14.42 12.094 15 10.675 15 9c0-1.675-.581-3.094-1.744-4.256C12.094 3.58 10.675 3 9 3c-1.675 0-3.094.581-4.256 1.744C3.58 5.906 3 7.325 3 9c0 1.675.581 3.094 1.744 4.256C5.906 14.42 7.325 15 9 15Z"/>
</svg>
